X:1
T:Title
%%score ( 1 2 ) 3
L:1/8
Q:1/4=108
M:4/4
K:C
V:1 treble nm="Grand Piano, Soprano"
V:2 treble 
V:3 bass nm="Choir Pad, O Love Divine, I Come!"
V:1
 [EG]2 [Ec]2- [Ec][GB] [FA]2 | G2 [FA]2 [CG]2 [CE]2 | [CE]2 [DF]2- [DF][CE] [B,D]2 | %3
w: By~William~Henry~Pontius * * * *|||
 [B,G]2 [DB]2- [DB][CA] [B,G]2 | [FG]2 [Ec]2- [Ec][Ge] [Gd]2 | [Gc]2 [FA]2- [FA][Ac] [GB]2 | %6
w: |||
 [FA]2 [EG]2 [Ec]2 [Dc]2 | [FB]2 [Ec]6 | z2 d4 z2 | [Ge]2 [Ec]6 | z2 A4 z2 | [^Fe]2 [Gd]6 | %12
w: ||||||
 [FG]2 [Ee]2- [Ee][Fd] [Ec]2 | [^GB]2 A2 [Fc]4 | .B2 z2 z4 | [FB]2 [Ec]6- | [Ec]2 z2 z4 |] %17
w: |||||
V:2
 x8 | x8 | x8 | x8 | x8 | x8 | x8 | x8 | G2 z F F[F^c] [Fd]2 | x8 | G2 z F F[FA] [^Fd]2 | x8 | x8 | %13
 x8 | _E-[EA] [=EG]2- [EG]G [^FA]2 | x8 | x8 |] %17
V:3
 [C,C]2 [C,C]2- [C,C][E,C] [F,C]2 | [E,C]2 [F,C]2 [E,C]2 [C,G,]2 | %2
 [C,G,]2 [B,,G,]2- [B,,G,][C,G,] [D,G,]2 | [D,G,]2 [D,^F,]2- [D,F,][D,F,] G,2 | %4
 [G,B,]2 [C,C]2- [C,C][C,C] [D,B,]2 | [E,C]2 [F,C]2- [F,C][F,C] [F,C]2 | %6
 [F,C]2 [G,C]2 G,2 [G,,G,]2 | [G,,G,]2 [C,G,]6 | z2 z [G,B,] [G,B,][G,B,] [G,B,]2 | %9
 [G,B,]2 [C,C]2 [C,G,]2 [C,G,]2 | z2 z [F,C] [F,C][F,C] [F,C]2 | [F,C]2 [G,B,]6 | %12
 [G,B,]2 [C,C]2- [C,C][G,B,] [A,C]2 | [E,D]2 [F,C]2 [F,A,]2 [F,A,]2 | %14
 [^F,C]2 [G,C]2- [G,C][E,C] [D,C]2 | G,2 [C,G,]6- | [C,G,]2 z2 z4 |] %17

